X:1
T: Rakes of Mallow, The
C: R-3
C: Irish Trad.
M: C|
Z:
R: polka
K: G
(3DEF| "G"G2B2 G2B2| G2B2 cBAG| "D"F2A2 F2A2| F2A2 dcBA|
       "G"G2B2 G2B2| G2B2 d3B| "C"cBAG "D7"FGAc| "G"B2G2 G2 :|
|:\
(3def| "G"g2fe d2c2| B2c2 d3B| g2fe d2c2| B2d2 "D"A3d|
       "G"g2fe d2c2| B2c2 d3B| "C"cBAG "D7"FGAc| "G"B2G2 G2 :|
%%vskip 12pt
P: Alternate B
|:\
(3def| gfgf e2d2| GABc d3f| g3f e2d2| e2a2 a3f|
       gfgf e2d2| GABc d3B| cBAG FGAc| B2G2 G2 :|
%
